packages/core/src/svgs/sdl.svg

<svg width="24" height="24" viewBox="0 0 24 24" fill="none" xmlns="http://www.w3.org/2000/svg">
<g clip-path="url(#clip0_31_18454)">
<path d="M0 0H24V24H0V0Z" fill="#F0F3FA"/>
<path d="M4.71436 12.0001C4.71436 10.0678 5.48196 8.21463 6.84829 6.84829C8.21463 5.48196 10.0678 4.71436 12.0001 4.71436C13.9324 4.71436 15.7855 5.48196 17.1518 6.84829C18.5182 8.21463 19.2858 10.0678 19.2858 12.0001C19.2858 13.9324 18.5182 15.7855 17.1518 17.1518C15.7855 18.5182 13.9324 19.2858 12.0001 19.2858C10.0678 19.2858 8.21463 18.5182 6.84829 17.1518C5.48196 15.7855 4.71436 13.9324 4.71436 12.0001ZM12.0001 5.5715C8.39578 5.5715 5.5715 8.39578 5.5715 12.0001C5.5715 15.6044 8.39578 18.4286 12.0001 18.4286C15.6044 18.4286 18.4286 15.6044 18.4286 12.0001C18.4286 8.39578 15.6044 5.5715 12.0001 5.5715Z" fill="#474799"/>
<path d="M11.9915 17.983L8.82861 15.0087L10.1658 13.7358L11.9915 17.983Z" fill="url(#paint0_linear_31_18454)"/>
<path d="M9.94278 7.98417C9.81849 8.0956 8.29278 9.12417 8.61421 10.8813C8.76421 11.6913 9.71135 12.5613 10.4956 13.4442C11.6056 14.6999 11.8156 15.0342 12.0085 15.4927C12.4799 16.6156 12.0642 17.7642 12.0042 17.9999C12.0042 17.9999 13.0028 17.267 13.1956 16.2856C13.3542 15.4627 13.3156 15.2485 13.2513 14.8756C13.0928 13.9756 12.4071 13.2256 11.6056 12.3985C10.8128 11.5756 10.7399 11.5285 10.1571 10.7999C9.81421 10.3713 9.61706 9.95988 9.60421 9.42845C9.59135 8.65274 10.0456 7.8856 9.93849 7.98417H9.94278Z" fill="url(#paint1_linear_31_18454)"/>
<path d="M10.7099 7.23429C10.7099 7.23429 10.7527 7.29 10.8427 7.32C10.9627 7.36286 11.1427 7.37143 11.2842 7.23429C11.4127 7.11857 11.4084 6.94286 11.3656 6.83571C11.3313 6.75 11.2713 6.70714 11.2713 6.70714L11.3527 6.62143C11.3527 6.62143 11.3827 6.66857 11.4556 6.70286C11.5713 6.75 11.7813 6.78 11.9484 6.59571C12.0684 6.46714 12.0427 6.30429 11.9913 6.20571C11.957 6.14143 11.9184 6.09429 11.9142 6.09L12.0084 6L15.2056 9.03L14.7599 9.43286C14.7599 9.43286 14.3613 8.97 13.9327 8.94857C13.7133 8.92906 13.4921 8.94352 13.277 8.99143C13.0456 9.04286 12.9213 9.09857 12.6427 8.96143C12.2913 8.78571 12.2999 8.42571 12.3042 8.23714C12.3127 8.08714 12.2356 8.00143 12.1284 7.99714C12.0342 7.99714 11.9356 8.02714 11.9142 8.17286C11.8713 8.47286 11.9142 8.67 12.1499 9.03C12.377 9.36857 13.2642 10.1871 13.5556 10.5086C13.8727 10.8514 14.1342 11.04 14.627 11.6957C14.9699 12.1414 15.4284 12.78 15.4284 13.56C15.4284 14.1514 15.2442 14.5114 15.0042 14.9571C14.7335 15.3722 14.4093 15.7497 14.0399 16.08C14.0527 16.05 14.3142 15.2829 14.267 14.3443C14.207 13.1743 13.1142 12.2571 12.5099 11.5757C12.017 11.0271 11.5842 10.6071 11.0913 9.96429C10.2427 8.85857 10.7056 7.23429 10.7056 7.23429H10.7099Z" fill="url(#paint2_linear_31_18454)"/>
</g>
<defs>
<linearGradient id="paint0_linear_31_18454" x1="8.82861" y1="15.8616" x2="11.9915" y2="15.8616" gradientUnits="userSpaceOnUse">
<stop offset="0.1" stop-color="#73BFB4"/>
<stop offset="0.26" stop-color="#4F9994"/>
<stop offset="0.75" stop-color="#40418F"/>
<stop offset="1" stop-color="#403B8F"/>
</linearGradient>
<linearGradient id="paint1_linear_31_18454" x1="8.57135" y1="12.9899" x2="13.3071" y2="12.9899" gradientUnits="userSpaceOnUse">
<stop offset="0.07" stop-color="#79C2BA"/>
<stop offset="0.27" stop-color="#46998F"/>
<stop offset="0.85" stop-color="#484997"/>
<stop offset="1" stop-color="#353681"/>
</linearGradient>
<linearGradient id="paint2_linear_31_18454" x1="16.097" y1="14.9614" x2="11.4084" y2="6.32571" gradientUnits="userSpaceOnUse">
<stop stop-color="#79C2BA"/>
<stop offset="0.26" stop-color="#46998F"/>
<stop offset="0.38" stop-color="#468C90"/>
<stop offset="0.59" stop-color="#476A93"/>
<stop offset="0.78" stop-color="#484997"/>
<stop offset="1" stop-color="#353681"/>
</linearGradient>
<clipPath id="clip0_31_18454">
<rect width="24" height="24" fill="white"/>
</clipPath>
</defs>
</svg>

<svg xmlns="http://www.w3.org/2000/svg" width="24" height="24" fill="none" viewBox="0 0 24 24"><g clip-path="url(#a)"><path fill="#F0F3FA" d="M0 0h24v24H0z"/><path fill="#474799" d="M4.714 12a7.286 7.286 0 1 1 14.572 0 7.286 7.286 0 0 1-14.572 0M12 5.572c-3.604 0-6.428 2.824-6.428 6.428S8.396 18.43 12 18.43 18.43 15.604 18.43 12 15.604 5.572 12 5.572"/><path fill="url(#b)" d="m11.992 17.983-3.163-2.974 1.337-1.273z"/><path fill="url(#c)" d="M9.943 7.984c-.125.112-1.65 1.14-1.329 2.897.15.81 1.097 1.68 1.882 2.563 1.11 1.256 1.32 1.59 1.512 2.049.472 1.123.056 2.271-.004 2.507 0 0 .999-.733 1.192-1.714.158-.823.12-1.038.055-1.41-.158-.9-.844-1.65-1.645-2.477-.793-.823-.866-.87-1.449-1.6-.343-.428-.54-.84-.553-1.37-.013-.776.442-1.543.334-1.445z"/><path fill="url(#d)" d="M10.71 7.234s.043.056.133.086c.12.043.3.051.441-.086.129-.115.124-.291.082-.398-.035-.086-.095-.129-.095-.129l.082-.086s.03.048.103.082a.43.43 0 0 0 .492-.107c.12-.129.095-.292.043-.39a.7.7 0 0 0-.077-.116l.094-.09 3.198 3.03-.446.403s-.399-.463-.827-.484q-.331-.03-.656.042c-.231.052-.356.108-.634-.03-.352-.175-.343-.535-.339-.724.009-.15-.068-.236-.176-.24-.094 0-.192.03-.214.176-.043.3 0 .497.236.857.227.339 1.114 1.157 1.406 1.479.317.342.578.531 1.071 1.187.343.445.801 1.084.801 1.864 0 .591-.184.951-.424 1.397-.27.415-.595.793-.964 1.123a5 5 0 0 0 .227-1.736c-.06-1.17-1.153-2.087-1.757-2.768-.493-.549-.926-.969-1.419-1.612-.848-1.105-.385-2.73-.385-2.73z"/></g><defs><linearGradient id="b" x1="8.829" x2="11.992" y1="15.862" y2="15.862" gradientUnits="userSpaceOnUse"><stop offset=".1" stop-color="#73BFB4"/><stop offset=".26" stop-color="#4F9994"/><stop offset=".75" stop-color="#40418F"/><stop offset="1" stop-color="#403B8F"/></linearGradient><linearGradient id="c" x1="8.571" x2="13.307" y1="12.99" y2="12.99" gradientUnits="userSpaceOnUse"><stop offset=".07" stop-color="#79C2BA"/><stop offset=".27" stop-color="#46998F"/><stop offset=".85" stop-color="#484997"/><stop offset="1" stop-color="#353681"/></linearGradient><linearGradient id="d" x1="16.097" x2="11.408" y1="14.961" y2="6.326" gradientUnits="userSpaceOnUse"><stop stop-color="#79C2BA"/><stop offset=".26" stop-color="#46998F"/><stop offset=".38" stop-color="#468C90"/><stop offset=".59" stop-color="#476A93"/><stop offset=".78" stop-color="#484997"/><stop offset="1" stop-color="#353681"/></linearGradient><clipPath id="a"><path fill="#fff" d="M0 0h24v24H0z"/></clipPath></defs></svg>
